X:8
T:Rêverie (pour Gaëtan)
C:Bruno Scherrer
L:1/8
%%score 2 1 3
M:4/4
K:Ebmaj
V:1
Bc|:d4-de3-|e4(3d2c2B2|cdA6-|A2_G3_F3|
F3c-c4-|c8|z8| [1z6Bc:| [2z8 | 
b3f3e2-|e8|b3f3e2-|e8|
b3f3e2-|e6_de-|e8|z8|
b3f3e2-|e8|b3f3e2-|e8|
b3f3e2-|e6_dc-|c8|cB3BA3|
AB2B-B4-|B8|z8|z8|
z8|z8|z8|z6Bc
%Warning : No repeat expected, found :|
:|
V:2
x2|:"^A""Bb"x7 "Gb/Bb"x 
%Error : Bar 35 is 5/4 not 4/4
| x8 | "Bb"x7 "Gb/Bb"x | x8 | 
| "Bb"x7 "Gb/Bb"x | x8 | "Bb"x7 "Gb/Bb"x |x8 |x8 |
| "CbΔ"x8 | x8 | "Cm7"x8 | x8 | 
| "^B""Db6"x8 | x8 | "Db6"x8 | x8 |
| "GbΔ"x8 | x8 | "Gm7"x8 | x8 | 
| "Ab6"x8 | x8 | "Ab6"x8 | x8 |
| "^A'""Bb"x7 "Gb/Bb"x | x8 | "Bb"x7 "Gb/Bb"x | x8 | 
| "Bb"x7 "Gb/Bb"x | x8 | "Bb"x7 "Gb/Bb"x |x8 |
| x8 | x8 | x8 | x8 |:|
V:3
z2|:B,,3F,2B,2_G,-
%Error : Bar 82 is 5/4 not 4/4
|_G,8 | B,,3F,2B,2_G,-|_G,8 |
B,,3F,2B,2_G,-|_G,8 | B,,3F,2B,2_G,-| _G,8:| _G,8 |
_C,3_G,3B,2-|B,8 | C,3G,3B,2-|B,8|
_D,3A,3B,2-|B,8|_D,3A,3B,2-|B,8|
_G,,3_D,3F,2-|F,8|G,,3D,3F,2-|F,8|
A,,3E,3F,2-|F,8|A,,3E,3F,2-|F,8|
B,,3F,2B,2_G,-|_G,8 | B,,3F,2B,2_G,-|_G,8 |
B,,3F,2B,2_G,-|_G,8 | B,,3F,2B,2_G,-|_G,8
%Warning : No repeat expected, found :|
:|
%%begintext
Globalement calme, encore plus calme sur B
Thème
Solos
Thème + fin sur les accords G Eb/G
%%endtext

%%newpage
